dhis-2/dhis-support/dhis-support-system/src/main/resources/SVGs/pregnant_2426w_positive.svg

<svg width="48" height="48" viewBox="0 0 48 48" fill="none" xmlns="http://www.w3.org/2000/svg">
<path fill-rule="evenodd" clip-rule="evenodd" d="M23.9997 4.00977C16.1168 4.00947 9.72593 10.3999 9.72693 18.2826C9.72623 26.1655 16.1168 32.5564 23.9997 32.5564C31.8827 32.5564 38.2736 26.1655 38.2726 18.2826C38.2736 10.3997 31.8827 4.00877 23.9997 4.00977ZM23.9997 5.96874C30.8007 5.96914 36.3136 11.4819 36.3136 18.2826C36.3136 25.0835 30.8007 30.5964 23.9997 30.5974C17.1988 30.5964 11.6859 25.0835 11.6859 18.2826C11.6859 11.4817 17.1988 5.96874 23.9997 5.96874ZM22.9118 6.66983C22.7258 6.67113 22.5338 6.77423 22.4468 7.02333C22.1308 7.72532 21.5868 8.21901 21.3478 9.2128C21.0438 10.6449 23.5008 10.7669 24.2677 10.7639C26.4807 10.8449 27.2777 12.2229 25.0037 12.4279C23.1168 12.6049 21.1758 12.6519 20.7948 16.5348C20.7458 17.1028 21.0078 18.1108 21.4648 19.3928C21.6158 20.2328 21.3658 21.2008 20.8628 22.2497C20.6068 22.2197 20.4178 22.1277 20.3708 21.9157C20.4148 21.0108 20.5978 20.2458 20.2378 18.9358C19.8838 17.6648 19.0178 17.0598 18.1388 16.9038C16.3758 16.5378 14.8119 16.2068 13.3999 16.6758C11.9119 17.2338 12.3879 19.4388 13.6679 19.4668L15.2359 19.5098C16.3228 19.5318 16.9118 20.0098 16.3478 21.5367L15.5819 23.7577C14.9559 25.6687 17.0628 27.7587 19.8238 27.9997C22.6158 27.9347 24.2287 26.6877 26.4037 26.0077C28.4887 24.8537 28.1027 24.0347 28.0957 23.3007C27.7487 22.2827 27.7017 21.9127 26.9467 20.7598C26.6517 20.4478 26.5147 20.3608 26.1247 20.1018C25.1757 19.0508 26.7137 18.3838 27.8727 17.0098C28.4747 16.1558 27.4547 15.1538 26.2707 15.5018C25.2717 15.8278 24.7477 16.4368 23.7298 17.4898C23.1498 18.1288 22.3648 19.6228 23.4408 20.8828C23.7418 21.4617 23.3358 21.7367 22.3088 22.0657C21.9718 22.1497 21.7298 22.1667 21.4648 22.2007C21.9988 21.3107 22.1308 20.4018 22.0118 19.4818C21.7838 18.5148 21.3878 17.5888 21.3708 16.5678C21.6978 12.6589 24.0447 13.1969 25.9017 12.8959C26.7837 12.8659 28.6767 10.7699 24.6187 10.0329C23.3458 9.80479 22.0878 9.89859 22.3028 9.0604C22.4858 8.33061 22.9808 7.87322 23.3008 7.30852C23.5178 6.94903 23.2218 6.66773 22.9118 6.66983ZM31.8297 16.5898V16.5918C30.9297 16.5918 30.0317 16.9358 29.3457 17.6228C27.9737 18.9958 27.9717 21.2258 29.3457 22.5977C30.7187 23.9697 32.9476 23.9647 34.3196 22.5897C35.6916 21.2158 35.6876 18.9868 34.3136 17.6148C33.6276 16.9288 32.7296 16.5888 31.8297 16.5898ZM4 33.9996V43.9995H43.9995V33.9996H4ZM7.81445 35.0956C8.59724 35.0956 9.20523 35.2836 9.63663 35.6596C10.0719 36.0356 10.2889 36.5656 10.2889 37.2515C10.2889 37.6275 10.1909 38.0105 9.99603 38.3995C9.80113 38.7895 9.46733 39.2425 8.99404 39.7615L7.26756 41.5835H10.5349V42.7985H5.32618V41.7655L7.78315 39.1455C8.12065 38.7775 8.36915 38.4545 8.52924 38.1795C8.69274 37.9045 8.77534 37.6445 8.77534 37.3975C8.77534 37.0606 8.68994 36.7946 8.51944 36.6036C8.34895 36.4086 8.10565 36.3116 7.78905 36.3116C7.44806 36.3116 7.17876 36.4306 6.98046 36.6676C6.78557 36.9006 6.68747 37.2066 6.68747 37.5895H5.17379C5.17379 37.1266 5.28268 36.7046 5.50198 36.3216C5.72458 35.9396 6.03777 35.6416 6.44137 35.4256C6.84496 35.2066 7.30296 35.0956 7.81445 35.0956ZM24.2462 35.0956C25.0292 35.0956 25.6352 35.2836 26.0662 35.6596C26.5012 36.0356 26.7192 36.5656 26.7192 37.2515C26.7192 37.6275 26.6232 38.0105 26.4282 38.3995C26.2332 38.7895 25.8992 39.2425 25.4262 39.7615L23.6973 41.5835H26.9652V42.7985H21.7563V41.7655L24.2152 39.1455C24.5522 38.7775 24.8012 38.4545 24.9612 38.1795C25.1242 37.9045 25.2052 37.6445 25.2052 37.3975C25.2052 37.0606 25.1202 36.7946 24.9492 36.6036C24.7792 36.4086 24.5352 36.3116 24.2192 36.3116C23.8783 36.3116 23.6083 36.4306 23.4103 36.6676C23.2153 36.9006 23.1173 37.2066 23.1173 37.5895H21.6043C21.6043 37.1266 21.7143 36.7046 21.9343 36.3216C22.1563 35.9396 22.4693 35.6416 22.8733 35.4256C23.2773 35.2066 23.7353 35.0956 24.2462 35.0956ZM31.7342 35.1226H31.9861V36.3646H31.8402C31.1582 36.3756 30.6072 36.5516 30.1892 36.8956C29.7752 37.2406 29.5272 37.7195 29.4432 38.3315C29.8472 37.9205 30.3572 37.7165 30.9732 37.7165C31.6342 37.7165 32.1591 37.9525 32.5491 38.4255C32.9391 38.8985 33.1351 39.5215 33.1351 40.2945C33.1351 40.7885 33.0261 41.2365 32.8111 41.6365C32.5981 42.0365 32.2961 42.3475 31.9022 42.5695C31.5132 42.7925 31.0702 42.9035 30.5762 42.9035C29.7762 42.9035 29.1292 42.6245 28.6352 42.0675C28.1442 41.5115 27.8982 40.7685 27.8982 39.8395V39.2965C27.8982 38.4715 28.0542 37.7445 28.3632 37.1146C28.6762 36.4816 29.1242 35.9926 29.7052 35.6476C30.2902 35.2996 30.9652 35.1266 31.7342 35.1226ZM14.4024 35.2006H15.9264V39.9385H16.7873V41.1555H15.9264V42.7985H14.4184V41.1555H11.3014L11.2344 40.2045L14.4024 35.2006ZM33.6971 35.2006H35.2581L36.2871 40.5975L37.5391 35.2006H38.8651L40.111 40.6065L41.135 35.2006H42.695L41.01 42.7985H39.4341L38.1971 37.7165L36.9591 42.7985H35.3831L33.6971 35.2006ZM14.4184 37.2556L14.3184 37.4295L12.7364 39.9385H14.4184V37.2556ZM30.5142 38.9275C30.2702 38.9275 30.0502 38.9895 29.8522 39.1185C29.6532 39.2435 29.5062 39.4115 29.4122 39.6205V40.0795C29.4122 40.5845 29.5112 40.9795 29.7092 41.2655C29.9072 41.5465 30.1872 41.6875 30.5452 41.6875C30.8692 41.6875 31.1302 41.5605 31.3282 41.3065C31.5302 41.0485 31.6312 40.7175 31.6312 40.3105C31.6312 39.8955 31.5302 39.5625 31.3282 39.3085C31.1262 39.0545 30.8552 38.9275 30.5142 38.9275ZM17.6583 38.9375H20.5983V40.1535H17.6583V38.9375Z" fill="#333333"/>
</svg>

<?xml version="1.0" encoding="UTF-8" standalone="no"?>
<!-- Created with Inkscape (http://www.inkscape.org/) -->
<svg id="svg8" xmlns:rdf="http://www.w3.org/1999/02/22-rdf-syntax-ns#" xmlns="http://www.w3.org/2000/svg" xmlns:osb="http://www.openswatchbook.org/uri/2009/osb" height="48" width="48" version="1.1" xmlns:cc="http://creativecommons.org/ns#" viewBox="0 0 12.7 12.7" xmlns:dc="http://purl.org/dc/elements/1.1/">
 <title id="title4753">UIO-icon</title>
 <metadata id="metadata5">
  <rdf:RDF>
   <cc:Work rdf:about="">
    <dc:format>image/svg+xml</dc:format>
    <dc:type rdf:resource="http://purl.org/dc/dcmitype/StillImage"/>
    <dc:title>UIO-icon</dc:title>
    <dc:creator>
     <cc:Agent>
      <dc:title>Joaquín Urbano</dc:title>
     </cc:Agent>
    </dc:creator>
    <dc:rights>
     <cc:Agent>
      <dc:title>GPL</dc:title>
     </cc:Agent>
    </dc:rights>
   </cc:Work>
  </rdf:RDF>
 </metadata>
 <g id="layer1" transform="translate(0,-284.3)">
  <path id="circle5040" d="m24 4.0098c-7.883-0.0003-14.274 6.3902-14.273 14.273-0.0007 7.883 6.39 14.274 14.273 14.274s14.274-6.391 14.273-14.274c0.001-7.883-6.39-14.274-14.273-14.273zm0 1.959c6.801 0.0004 12.314 5.5132 12.314 12.314 0 6.801-5.513 12.314-12.314 12.315-6.801-0.001-12.314-5.514-12.314-12.315s5.513-12.314 12.314-12.314zm-1.088 0.7011c-0.186 0.0013-0.378 0.1044-0.465 0.3535-0.316 0.702-0.86 1.1957-1.099 2.1895-0.304 1.4321 2.153 1.5541 2.92 1.5511 2.213 0.081 3.01 1.459 0.736 1.664-1.887 0.177-3.828 0.224-4.209 4.107-0.049 0.568 0.213 1.576 0.67 2.858 0.151 0.84-0.099 1.808-0.602 2.857-0.256-0.03-0.445-0.122-0.492-0.334 0.044-0.905 0.227-1.67-0.133-2.98-0.354-1.271-1.22-1.876-2.099-2.032-1.763-0.366-3.327-0.697-4.739-0.228-1.488 0.558-1.012 2.763 0.268 2.791l1.568 0.043c1.087 0.022 1.676 0.5 1.112 2.027l-0.766 2.221c-0.626 1.911 1.481 4.001 4.242 4.242 2.792-0.065 4.405-1.312 6.58-1.992 2.085-1.154 1.699-1.973 1.692-2.707-0.347-1.018-0.394-1.388-1.149-2.541-0.295-0.312-0.432-0.399-0.822-0.658-0.949-1.051 0.589-1.718 1.748-3.092 0.602-0.854-0.418-1.856-1.602-1.508-0.999 0.326-1.523 0.935-2.541 1.988-0.58 0.639-1.365 2.133-0.289 3.393 0.301 0.579-0.105 0.854-1.132 1.183-0.337 0.084-0.579 0.101-0.844 0.135 0.534-0.89 0.666-1.799 0.547-2.719-0.228-0.967-0.624-1.893-0.641-2.914 0.327-3.909 2.674-3.371 4.531-3.672 0.882-0.03 2.775-2.126-1.283-2.863-1.273-0.2281-2.531-0.1343-2.316-0.9725 0.183-0.7298 0.678-1.1872 0.998-1.7519 0.217-0.3595-0.079-0.6408-0.389-0.6387zm8.918 9.9201v0.002c-0.9 0-1.798 0.344-2.484 1.031-1.372 1.373-1.374 3.603 0 4.975 1.373 1.372 3.602 1.367 4.974-0.008 1.372-1.374 1.368-3.603-0.006-4.975-0.686-0.686-1.584-1.026-2.484-1.025zm-27.83 17.41v10h40v-10h-40zm3.8145 1.096c0.7828 0 1.3908 0.188 1.8222 0.564 0.4353 0.376 0.6523 0.906 0.6523 1.592 0 0.376-0.098 0.759-0.2929 1.148-0.1949 0.39-0.5287 0.843-1.002 1.362l-1.7265 1.822h3.2674v1.215h-5.2088v-1.033l2.457-2.62c0.3375-0.368 0.586-0.691 0.7461-0.966 0.1635-0.275 0.2461-0.535 0.2461-0.782 0-0.337-0.0854-0.603-0.2559-0.794-0.1705-0.195-0.4138-0.292-0.7304-0.292-0.341 0-0.6103 0.119-0.8086 0.356-0.1949 0.233-0.293 0.539-0.293 0.922h-1.5137c0-0.463 0.1089-0.885 0.3282-1.268 0.2226-0.382 0.5358-0.68 0.9394-0.896 0.4036-0.219 0.8616-0.33 1.3731-0.33zm16.432 0c0.783 0 1.389 0.188 1.82 0.564 0.435 0.376 0.653 0.906 0.653 1.592 0 0.376-0.096 0.759-0.291 1.148-0.195 0.39-0.529 0.843-1.002 1.362l-1.729 1.822h3.268v1.215h-5.209v-1.033l2.459-2.62c0.337-0.368 0.586-0.691 0.746-0.966 0.163-0.275 0.244-0.535 0.244-0.782 0-0.337-0.085-0.603-0.256-0.794-0.17-0.195-0.414-0.292-0.73-0.292-0.341 0-0.611 0.119-0.809 0.356-0.195 0.233-0.293 0.539-0.293 0.922h-1.513c0-0.463 0.11-0.885 0.33-1.268 0.222-0.382 0.535-0.68 0.939-0.896 0.404-0.219 0.862-0.33 1.373-0.33zm7.488 0.027h0.252v1.242h-0.146c-0.682 0.011-1.233 0.187-1.651 0.531-0.414 0.345-0.662 0.824-0.746 1.436 0.404-0.411 0.914-0.615 1.53-0.615 0.661 0 1.186 0.236 1.576 0.709s0.586 1.096 0.586 1.869c0 0.494-0.109 0.942-0.324 1.342-0.213 0.4-0.515 0.711-0.909 0.933-0.389 0.223-0.832 0.334-1.326 0.334-0.8 0-1.447-0.279-1.941-0.836-0.491-0.556-0.737-1.299-0.737-2.228v-0.543c0-0.825 0.156-1.552 0.465-2.182 0.313-0.633 0.761-1.122 1.342-1.467 0.585-0.348 1.26-0.521 2.029-0.525zm-17.332 0.078h1.524v4.738h0.861v1.217h-0.861v1.643h-1.508v-1.643h-3.117l-0.067-0.951 3.168-5.004zm19.295 0h1.561l1.029 5.397 1.252-5.397h1.326l1.246 5.406 1.024-5.406h1.56l-1.685 7.598h-1.576l-1.237-5.082-1.238 5.082h-1.576l-1.686-7.598zm-19.279 2.055l-0.1 0.174-1.582 2.509h1.682v-2.683zm16.096 1.672c-0.244 0-0.464 0.062-0.662 0.191-0.199 0.125-0.346 0.293-0.44 0.502v0.459c0 0.505 0.099 0.9 0.297 1.186 0.198 0.281 0.478 0.422 0.836 0.422 0.324 0 0.585-0.127 0.783-0.381 0.202-0.258 0.303-0.589 0.303-0.996 0-0.415-0.101-0.748-0.303-1.002s-0.473-0.381-0.814-0.381zm-12.856 0.01h2.94v1.216h-2.94v-1.216z" fill-rule="evenodd" transform="matrix(.26458 0 0 .26458 0 284.3)" fill="#333"/>
 </g>
</svg>
